passport-cancel.svg

<svg fill="currentColor" viewBox="0 0 24 24"><path d="M6 2c-.53 0-1.04.21-1.41.59C4.21 2.96 4 3.47 4 4v16c0 .53.21 1.04.59 1.41.37.38.88.59 1.41.59h7c-.54-.88-.9-1.9-1-3H7v-2h5.17c.19-.77.5-1.5.93-2.12a5.036 5.036 0 0 1-4.64-1.34A5.04 5.04 0 0 1 7 10c0-1.33.53-2.6 1.46-3.54C9.4 5.53 10.67 5 12 5s2.6.53 3.54 1.46C16.47 7.4 17 8.67 17 10c0 .82-.2 1.63-.58 2.34.65-.22 1.35-.34 2.08-.34.5 0 1 .06 1.5.17V4c0-.53-.21-1.04-.59-1.41C19.04 2.21 18.53 2 18 2zm6 4c-.41.62-.75 1.29-.96 2h1.92A7.2 7.2 0 0 0 12 6m-1.3.22C9.78 6.53 9 7.17 8.54 8H10c.18-.62.4-1.22.7-1.78m2.59 0c.3.56.53 1.16.71 1.78h1.46c-.46-.83-1.25-1.46-2.17-1.78M8.13 9c-.08.32-.13.65-.13 1s.05.68.13 1h1.69c-.04-.33-.07-.66-.07-1s.03-.67.07-1zm2.7 0c-.05.32-.08.66-.08 1s.03.67.08 1h2.34c.04-.33.08-.66.08-1s-.04-.68-.08-1zm3.35 0c.04.33.07.66.07 1s-.03.67-.07 1h1.69c.08-.32.13-.65.13-1s-.05-.68-.13-1zm-5.64 3c.46.83 1.24 1.46 2.16 1.78-.3-.56-.52-1.15-.7-1.78zm2.5 0c.21.72.55 1.38.96 2 .42-.62.75-1.28.96-2zM14 12c-.18.63-.41 1.22-.71 1.78.92-.32 1.71-.95 2.17-1.78zm4.5 11c2.5 0 4.5-2 4.5-4.5S21 14 18.5 14 14 16 14 18.5s2 4.5 4.5 4.5m-2.58-6L20 21.09c-.42.26-.94.41-1.5.41-1.66 0-3-1.34-3-3 0-.56.15-1.08.42-1.5m5.58 1.5c0 .56-.15 1.08-.41 1.5L17 15.92c.42-.27.94-.42 1.5-.42 1.66 0 3 1.34 3 3"/></svg>

<svg  viewBox="0 0 24 24" fill="currentColor"><path  d="M6 2C5.47 2 4.96 2.21 4.59 2.59C4.21 2.96 4 3.47 4 4V20C4 20.53 4.21 21.04 4.59 21.41C4.96 21.79 5.47 22 6 22H13C12.46 21.12 12.1 20.1 12 19H7V17H12.17C12.36 16.23 12.67 15.5 13.1 14.88C12.74 14.96 12.37 15 12 15C10.67 15 9.4 14.47 8.46 13.54C7.53 12.6 7 11.33 7 10C7 8.67 7.53 7.4 8.46 6.46C9.4 5.53 10.67 5 12 5C13.33 5 14.6 5.53 15.54 6.46C16.47 7.4 17 8.67 17 10C17 10.82 16.8 11.63 16.42 12.34C17.07 12.12 17.77 12 18.5 12C19 12 19.5 12.06 20 12.17V4C20 3.47 19.79 2.96 19.41 2.59C19.04 2.21 18.53 2 18 2H6M12 6C11.59 6.62 11.25 7.29 11.04 8H12.96C12.75 7.29 12.42 6.62 12 6M10.7 6.22C9.78 6.53 9 7.17 8.54 8H10C10.18 7.38 10.4 6.78 10.7 6.22M13.29 6.22C13.59 6.78 13.82 7.38 14 8H15.46C15 7.17 14.21 6.54 13.29 6.22M8.13 9C8.05 9.32 8 9.65 8 10C8 10.35 8.05 10.68 8.13 11H9.82C9.78 10.67 9.75 10.34 9.75 10C9.75 9.66 9.78 9.33 9.82 9H8.13M10.83 9C10.78 9.32 10.75 9.66 10.75 10C10.75 10.34 10.78 10.67 10.83 11H13.17C13.21 10.67 13.25 10.34 13.25 10C13.25 9.66 13.21 9.32 13.17 9H10.83M14.18 9C14.22 9.33 14.25 9.66 14.25 10C14.25 10.34 14.22 10.67 14.18 11H15.87C15.95 10.68 16 10.35 16 10C16 9.65 15.95 9.32 15.87 9H14.18M8.54 12C9 12.83 9.78 13.46 10.7 13.78C10.4 13.22 10.18 12.63 10 12H8.54M11.04 12C11.25 12.72 11.59 13.38 12 14C12.42 13.38 12.75 12.72 12.96 12H11.04M14 12C13.82 12.63 13.59 13.22 13.29 13.78C14.21 13.46 15 12.83 15.46 12H14M18.5 23C21 23 23 21 23 18.5C23 16 21 14 18.5 14C16 14 14 16 14 18.5C14 21 16 23 18.5 23M15.92 17L20 21.09C19.58 21.35 19.06 21.5 18.5 21.5C16.84 21.5 15.5 20.16 15.5 18.5C15.5 17.94 15.65 17.42 15.92 17M21.5 18.5C21.5 19.06 21.35 19.58 21.09 20L17 15.92C17.42 15.65 17.94 15.5 18.5 15.5C20.16 15.5 21.5 16.84 21.5 18.5Z"/></svg>
